X: 1
T:Rakish Paddy
C:Trad
R:Reel
M:C
Z:e.g. Planxty
K:D
L:1/8
=c2 cB cAAB | =cAAG EG G2 | Addc defe | dcAG FGAB |
=c2 cB cAAB | =cAAG EG G2 | DEFG AB ((3=cBA) |1 dcAG FGAB :|2 dcAG FDD2
|
|: eggg aggg | eggg edcd | eaaa baaa | eaaa edcd | eggg aggg |
f2 fe defg | afge fdec |1 dcAG FD D2 :|2 dcAG FGAB | =c2 |
